icons/1_Primary/CodeShip.svg

<svg xmlns="http://www.w3.org/2000/svg" width="1024" height="1024" fill="none">
   <g clip-path="url(#a)">
      <path fill="#54688C" d="M512 1024c282.77 0 512-229.23 512-512S794.77 0 512 0 0 229.23 0 512s229.23 512 512 512Z"/>
      <path fill="#fff" d="M451.8 269.4c-4.3 2.2-7 6.6-7 11.4v36.4c42.4-7.2 85.6-7.2 128 0v-36.4c0-4.8-2.7-9.2-7-11.4-17.7-8.8-37.2-13.4-57-13.4-19.6 0-39.1 4.5-57 13.4ZM739 624.1C697.4 709.3 609.9 768 508.8 768c-107.9 0-200.3-66.8-237.9-161.4 19.2-17 41.7-30.6 77.9-30.6 48 0 72 24 96 48s48 48 96 48c40 0 68-12 96-24s56-24 96-24c2.1 0 4.1 0 6.2.1ZM508.8 448c-32 48 0 192 0 192s32-144 0-192ZM280.3 627.7c10.8-2.3 22.8-3.7 36.4-3.7 40 0 68 12 96 24 3.5 1.5 7 3 10.6 4.5-15.3-51.2-38.8-116.3-70.5-166.2-2.3-3.6-1.5-8.3 2-10.8 63.9-44.5 154-59.5 154-59.5s90.1 15 153.9 59.6c3.5 2.4 4.3 7.2 2 10.8-26.5 41.8-47.3 94.1-62.3 140.1l2.4-2.4c24-24 48-48 96-48 21.6 0 38.3 4.9 52.4 12.4C720.7 692.5 623.5 768 508.8 768c-99.8 0-186.2-57-228.5-140.3Zm105-261.4c-2.7 1-4.6 3.7-4.6 6.6v50.9c23.2-11.2 46.3-19.4 65.6-25.3 16.2-4.9 30.2-8.4 40.3-10.7 7.6-1.7 12.9-2.7 15.4-3.1l6.7-1.1 5.7 1 1 .2c.8.1 1.9.4 3.4.6 2.9.6 6.9 1.4 12 2.5 10.1 2.2 24.2 5.7 40.3 10.7 19.4 5.9 42.5 14.2 65.6 25.3V373c0-2.9-1.8-5.6-4.6-6.6-79.5-30-167.2-30-246.8-.1Z"/>
   </g>
   <defs>
      <clipPath id="a">
         <path fill="#fff" d="M0 0h1024v1024H0z"/>
      </clipPath>
   </defs>
</svg>

<svg width="1024" height="1024" viewBox="0 0 1024 1024" fill="none" xmlns="http://www.w3.org/2000/svg">
<g clip-path="url(#clip0_2_1839)">
<path d="M512 1024C794.77 1024 1024 794.77 1024 512C1024 229.23 794.77 0 512 0C229.23 0 0 229.23 0 512C0 794.77 229.23 1024 512 1024Z" fill="#54688C"/>
<path d="M451.8 269.4C447.5 271.6 444.8 276 444.8 280.8V317.2C487.2 310 530.4 310 572.8 317.2V280.8C572.8 276 570.1 271.6 565.8 269.4C548.1 260.6 528.6 256 508.8 256C489.2 256 469.7 260.5 451.8 269.4ZM739 624.1C697.4 709.3 609.9 768 508.8 768C400.9 768 308.5 701.2 270.9 606.6C290.1 589.6 312.6 576 348.8 576C396.8 576 420.8 600 444.8 624C468.8 648 492.8 672 540.8 672C580.8 672 608.8 660 636.8 648C664.8 636 692.8 624 732.8 624C734.9 624 736.9 624 739 624.1ZM508.8 448C476.8 496 508.8 640 508.8 640C508.8 640 540.8 496 508.8 448ZM280.3 627.7C291.1 625.4 303.1 624 316.7 624C356.7 624 384.7 636 412.7 648C416.2 649.5 419.7 651 423.3 652.5C408 601.3 384.5 536.2 352.8 486.3C350.5 482.7 351.3 478 354.8 475.5C418.7 431 508.8 416 508.8 416C508.8 416 598.9 431 662.7 475.6C666.2 478 667 482.8 664.7 486.4C638.2 528.2 617.4 580.5 602.4 626.5L604.8 624.1C628.8 600.1 652.8 576.1 700.8 576.1C722.4 576.1 739.1 581 753.2 588.5C720.7 692.5 623.5 768 508.8 768C409 768 322.6 711 280.3 627.7ZM385.3 366.3C382.6 367.3 380.7 370 380.7 372.9V423.8C403.9 412.6 427 404.4 446.3 398.5C462.5 393.6 476.5 390.1 486.6 387.8C494.2 386.1 499.5 385.1 502 384.7L508.7 383.6L514.4 384.6L515.4 384.8C516.2 384.9 517.3 385.2 518.8 385.4C521.7 386 525.7 386.8 530.8 387.9C540.9 390.1 555 393.6 571.1 398.6C590.5 404.5 613.6 412.8 636.7 423.9V373C636.7 370.1 634.9 367.4 632.1 366.4C552.6 336.4 464.9 336.4 385.3 366.3Z" fill="white"/>
</g>
<defs>
<clipPath id="clip0_2_1839">
<rect width="1024" height="1024" fill="white"/>
</clipPath>
</defs>
</svg>
